X: 104
T:When Arthur First to Kirk.. WI.104
M:6/8
Q:100
C:"..began to wear long hanging sleaves"
S:Wm Irwin, Folio MS, c1850. AGG's Transcription
R:Air
O:England
A:Lake District
Z:vmp.Chris Partington.2005
K:Bb
B|d2d d2f|B2B B2c|d2d d2e|c3 c2B|!
d2c d2c|B2A G2A|B2G A2B|G3 G2:|!
|:F|B2B Bdf|g2f d2f|g2a b2g|f3 edc|!
B2B Bdf|g2a b2g|f2e dcB|c3 c2:|]
